image-marker-outline.svg

<svg fill="currentColor" viewBox="0 0 24 24"><path d="M14 19c.36.72.78 1.4 1.19 2H5a2 2 0 0 1-2-2V5c0-1.1.9-2 2-2h14a2 2 0 0 1 2 2v5.63c-.61-.33-1.29-.54-2-.6V5H5v14zm-.04-6.71-2.75 3.54-1.96-2.36L6.5 17h6.72c-.13-.5-.22-1-.22-1.5 0-1.15.38-2.24 1-3.13zM22 15.5c0 2.6-3.5 6.5-3.5 6.5S15 18.1 15 15.5c0-1.9 1.6-3.5 3.5-3.5s3.5 1.6 3.5 3.5m-2.3.1c0-.6-.6-1.2-1.2-1.2s-1.2.5-1.2 1.2c0 .6.5 1.2 1.2 1.2s1.3-.6 1.2-1.2"/></svg>

<svg  viewBox="0 0 24 24" fill="currentColor"><path  d="M14 19C14.36 19.72 14.78 20.4 15.19 21H5C3.9 21 3 20.11 3 19V5C3 3.9 3.9 3 5 3H19C20.11 3 21 3.9 21 5V10.63C20.39 10.3 19.71 10.09 19 10.03V5H5V19H14M13.96 12.29L11.21 15.83L9.25 13.47L6.5 17H13.22C13.09 16.5 13 16 13 15.5C13 14.35 13.38 13.26 14 12.37L13.96 12.29M22 15.5C22 18.1 18.5 22 18.5 22S15 18.1 15 15.5C15 13.6 16.6 12 18.5 12S22 13.6 22 15.5M19.7 15.6C19.7 15 19.1 14.4 18.5 14.4S17.3 14.9 17.3 15.6C17.3 16.2 17.8 16.8 18.5 16.8S19.8 16.2 19.7 15.6Z"/></svg>
